svgs/bundled_notes.svg

<svg width="192" height="192" viewBox="0 0 192 192" fill="none" xmlns="http://www.w3.org/2000/svg">
<path d="M57.8904 102.082V28C57.8904 24.6863 60.5767 22 63.8904 22H122.26C144.374 22 162.301 39.927 162.301 62.0411C162.301 71.7706 158.831 80.6896 153.061 87.6279C149.285 92.1682 149.285 99.8318 153.061 104.372C158.831 111.31 162.301 120.229 162.301 129.959C162.301 152.073 144.374 170 122.26 170H63.8904C60.5767 170 57.8904 167.314 57.8904 164V89.9178" stroke="black" stroke-width="12"/>
<path d="M131.334 111.666L59.4612 67.5573C46.1351 59.379 29 68.9677 29 84.6032V128.712C29 139.758 37.9543 148.712 49 148.712H120.873C141.052 148.712 148.533 122.221 131.334 111.666Z" stroke="black" stroke-width="12" stroke-linecap="round" stroke-linejoin="round"/>
</svg>

<svg width="192" height="192" viewBox="0 0 192 192" fill="none" xmlns="http://www.w3.org/2000/svg"><path d="M57.89 102.082V28a6 6 0 0 1 6-6h58.37c22.114 0 40.041 17.927 40.041 40.041 0 9.73-3.47 18.649-9.24 25.587-3.776 4.54-3.776 12.204 0 16.744a39.878 39.878 0 0 1 9.24 25.587c0 22.114-17.927 40.041-40.041 40.041H63.89a6 6 0 0 1-6-6V89.918" stroke="#000" stroke-width="12"/><path d="M131.334 111.666 59.461 67.557C46.135 59.38 29 68.967 29 84.603v44.109c0 11.046 8.954 20 20 20h71.873c20.179 0 27.66-26.491 10.461-37.046Z" stroke="#000" stroke-width="12" stroke-linecap="round" stroke-linejoin="round"/></svg>
